X:901
T:Girl With the Blue Dress On, The
O:ireland
R:polka
Z:id:hn-polka-51
M:2/4
L:1/8
K:G
de/d/ cA/c/|BG G/F/G/B/|AF F/E/F/G/|AG GB|
de/d/ cA/c/|BG G/F/G/B/|AF F/E/F/G/|AG G2:|
|:g/d/B/d/ g>g|fe e/d/e|f/c/A/c/ f>f|ed d/c/B/A/|
GB/d/ g>g|fe e/f/g|fa ef|ag g2:|
